X:250
T: Yiduo molihua
N: C0393
O: China, Henan, Shangcheng
S: IV, 148]
N: Variante aus Henan
N: Wenig Verzierungen.
R: Xiaodiao, Shidiao, Molihua diao. Guniang chujia]
M: 2/4
L: 1/16
K: G
B2Bde2ge | d8 | B2BABdBA | G8
E2G4A2 | B2e2d2B2 | A2A2BdBA | G8
BAG2A4 | A3Bd2Bd | e2dBA
BAG | d2E4G2 | A3BAGE2 | D8

